X:535
T:Serag's Hornpipe,The. (p)1721.PLFD.535
M:9/8
L:1/8
Q:3/8=110
S:Playford, Dancing Master,17th Ed.,1721.
O:England
Z:Chris Partington.
K:Bb
g>ag f>ed cBA|GAB c=EG ^FED|
g>ag f>ed c>BA|B>cdG2A BAG:|
|:F>GF A>BAA3|F>GA c=EG ^F>ED|
gfe dcB B>cd|DG^FG2A BAG:|
